SVG_Azure_Grouped/Networking/Reserved IP address (classic).svg

<?xml version="1.0" encoding="UTF-8" standalone="no"?>
<!-- Generated by Microsoft Visio, SVG Export Reserved IP address (classic).svg Page-1 -->

<svg
   xmlns:dc="http://purl.org/dc/elements/1.1/"
   xmlns:cc="http://creativecommons.org/ns#"
   xmlns:rdf="http://www.w3.org/1999/02/22-rdf-syntax-ns#"
   xmlns:svg="http://www.w3.org/2000/svg"
   xmlns="http://www.w3.org/2000/svg"
   xmlns:sodipodi="http://sodipodi.sourceforge.net/DTD/sodipodi-0.dtd"
   xmlns:inkscape="http://www.inkscape.org/namespaces/inkscape"
   width="0.78736007in"
   height="0.66924775in"
   viewBox="0 0 56.689993 48.185908"
   xml:space="preserve"
   class="st4"
   version="1.1"
   id="svg44"
   sodipodi:docname="Reserved IP address (classic).svg"
   style="font-size:12px;overflow:visible;color-interpolation-filters:sRGB;fill:none;fill-rule:evenodd;stroke-linecap:square;stroke-miterlimit:3"
   inkscape:version="0.92.5 (2060ec1f9f, 2020-04-08)"><metadata
   id="metadata50"><rdf:RDF><cc:Work
       rdf:about=""><dc:format>image/svg+xml</dc:format><dc:type
         rdf:resource="http://purl.org/dc/dcmitype/StillImage" /></cc:Work></rdf:RDF></metadata><defs
   id="defs48" /><sodipodi:namedview
   pagecolor="#ffffff"
   bordercolor="#666666"
   borderopacity="1"
   objecttolerance="10"
   gridtolerance="10"
   guidetolerance="10"
   inkscape:pageopacity="0"
   inkscape:pageshadow="2"
   inkscape:window-width="640"
   inkscape:window-height="480"
   id="namedview46"
   showgrid="false"
   inkscape:zoom="1.8741153"
   inkscape:cx="37.795223"
   inkscape:cy="17.602588"
   inkscape:window-x="0"
   inkscape:window-y="0"
   inkscape:window-maximized="0"
   inkscape:current-layer="svg44" />
	<style
   type="text/css"
   id="style2">
	<![CDATA[
		.st1 {fill:#59b4d9;stroke:none;stroke-linecap:butt;stroke-width:12.24}
		.st2 {fill:#0072c6;stroke:none;stroke-linecap:butt;stroke-width:12.24}
		.st3 {fill:#ffffff;stroke:none;stroke-linecap:butt;stroke-width:12.24}
		.st4 {fill:none;fill-rule:evenodd;font-size:12px;overflow:visible;stroke-linecap:square;stroke-miterlimit:3}
	]]>
	</style>

	<g
   id="g42"
   transform="translate(-12.24,-12.2384)">
		<title
   id="title4">Page-1</title>
		<g
   id="group17629-1"
   transform="translate(12.24,-34.0157)">
			<title
   id="title6">Reserved IP address (classic).17629</title>
			<g
   id="group17630-2">
				<title
   id="title8">Sheet.17630</title>
				<g
   id="shape17631-3">
					<title
   id="title10">Sheet.17631</title>
					<path
   d="m 0,92.18 c 0,1.25 1.02,2.26 2.27,2.26 h 52.16 c 1.24,0 2.26,-1.01 2.26,-2.26 V 56.78 H 0 Z"
   class="st1"
   id="path12"
   inkscape:connector-curvature="0"
   style="fill:#59b4d9;stroke:none;stroke-width:12.23999977;stroke-linecap:butt" />
				</g>
				<g
   id="shape17632-5"
   transform="translate(0,-33.9359)">
					<title
   id="title15">Sheet.17632</title>
					<path
   d="M 54.43,80.19 H 2.27 C 1.02,80.19 0,81.21 0,82.45 V 94.44 H 56.69 V 82.45 c 0,-1.24 -1.02,-2.26 -2.26,-2.26 z"
   class="st2"
   id="path17"
   inkscape:connector-curvature="0"
   style="fill:#0072c6;stroke:none;stroke-width:12.23999977;stroke-linecap:butt" />
				</g>
				<g
   id="shape17633-7"
   transform="translate(14.6268,-38.3476)">
					<title
   id="title20">Sheet.17633</title>
					<rect
   x="0"
   y="90.033096"
   width="38.210999"
   height="4.4116702"
   class="st3"
   id="rect22"
   style="fill:#ffffff;stroke:none;stroke-width:12.23999977;stroke-linecap:butt" />
				</g>
				<g
   id="shape17634-9"
   transform="translate(1.70079,-35.0671)">
					<title
   id="title25">Sheet.17634</title>
					<path
   d="m 11.11,88.9 c 0,3.06 -2.49,5.54 -5.55,5.54 C 2.49,94.44 0,91.96 0,88.9 c 0,-3.05 2.49,-5.54 5.56,-5.54 3.06,0 5.55,2.49 5.55,5.54 z"
   class="st1"
   id="path27"
   inkscape:connector-curvature="0"
   style="fill:#59b4d9;stroke:none;stroke-width:12.23999977;stroke-linecap:butt" />
				</g>
				<g
   id="shape17635-11"
   transform="translate(4.53543,-37.3295)">
					<title
   id="title30">Sheet.17635</title>
					<path
   d="m 2.15,91.73 2.5,2.71 H 3.29 L 0,91.28 3.29,88 h 1.36 l -2.5,2.71 h 6.13 v 1.02 z"
   class="st3"
   id="path32"
   inkscape:connector-curvature="0"
   style="fill:#ffffff;stroke:none;stroke-width:12.23999977;stroke-linecap:butt" />
				</g>
				<g
   id="shape17636-13"
   transform="translate(14.8535,-9.72829)">
					<title
   id="title35">Sheet.17636</title>
					<path
   d="m 4.88,92.3 c 0,0.67 -0.23,1.13 -0.68,1.58 -0.46,0.45 -1.03,0.56 -1.82,0.56 -0.68,0 -1.25,-0.22 -1.7,-0.67 C 0.23,93.31 0,92.86 0,92.18 0,91.5 0.23,91.05 0.68,90.6 1.13,90.15 1.7,90.03 2.49,90.03 c 0.68,0 1.25,0.23 1.71,0.68 0.45,0.45 0.68,0.91 0.68,1.59 z m 10.09,0 c 0,0.67 -0.23,1.13 -0.68,1.58 -0.46,0.45 -1.02,0.56 -1.82,0.56 -0.68,0 -1.24,-0.22 -1.7,-0.67 -0.45,-0.46 -0.68,-0.91 -0.68,-1.59 0,-0.68 0.23,-1.13 0.68,-1.58 0.46,-0.45 1.02,-0.57 1.82,-0.57 0.68,0 1.24,0.23 1.7,0.68 0.45,0.45 0.68,0.91 0.68,1.59 z m 10.09,0 c 0,0.67 -0.23,1.13 -0.68,1.58 -0.46,0.45 -1.02,0.56 -1.82,0.56 -0.68,0 -1.24,-0.22 -1.7,-0.67 -0.45,-0.46 -0.68,-0.91 -0.68,-1.59 0,-0.68 0.23,-1.13 0.68,-1.58 0.46,-0.45 1.02,-0.57 1.82,-0.57 0.68,0 1.24,0.23 1.7,0.68 0.45,0.45 0.68,0.91 0.68,1.59 z"
   class="st2"
   id="path37"
   inkscape:connector-curvature="0"
   style="fill:#0072c6;stroke:none;stroke-width:12.23999977;stroke-linecap:butt" />
				</g>
			</g>
		</g>
	</g>
</svg>

<?xml version="1.0" encoding="UTF-8" standalone="no"?>
<!DOCTYPE svg PUBLIC "-//W3C//DTD SVG 1.1//EN" "http://www.w3.org/Graphics/SVG/1.1/DTD/svg11.dtd">
<!-- Generated by Microsoft Visio, SVG Export Reserved IP address (classic).svg Page-1 -->
<svg xmlns="http://www.w3.org/2000/svg" xmlns:xlink="http://www.w3.org/1999/xlink" xmlns:ev="http://www.w3.org/2001/xml-events"
		width="1.1274in" height="1.31173in" viewBox="0 0 81.1729 94.4447" xml:space="preserve" color-interpolation-filters="sRGB"
		class="st4">
	<style type="text/css">
	<![CDATA[
		.st1 {fill:#59b4d9;stroke:none;stroke-linecap:butt;stroke-width:12.24}
		.st2 {fill:#0072c6;stroke:none;stroke-linecap:butt;stroke-width:12.24}
		.st3 {fill:#ffffff;stroke:none;stroke-linecap:butt;stroke-width:12.24}
		.st4 {fill:none;fill-rule:evenodd;font-size:12px;overflow:visible;stroke-linecap:square;stroke-miterlimit:3}
	]]>
	</style>

	<g>
		<title>Page-1</title>
		<g id="group17232-1" transform="translate(12.24,-34.0157)">
			<title>Reserved IP address (classic).17232</title>
			<g id="group17233-2">
				<title>Sheet.17233</title>
				<g id="shape17234-3">
					<title>Sheet.17234</title>
					<path d="M0 92.18 C0 93.43 1.02 94.44 2.27 94.44 L54.43 94.44 C55.67 94.44 56.69 93.43 56.69 92.18 L56.69 56.78
								 L0 56.78 L0 92.18 Z" class="st1"/>
				</g>
				<g id="shape17235-5" transform="translate(0,-33.9359)">
					<title>Sheet.17235</title>
					<path d="M54.43 80.19 L2.27 80.19 C1.02 80.19 0 81.21 0 82.45 L0 94.44 L56.69 94.44 L56.69 82.45 C56.69 81.21
								 55.67 80.19 54.43 80.19 Z" class="st2"/>
				</g>
				<g id="shape17236-7" transform="translate(14.6268,-38.3476)">
					<title>Sheet.17236</title>
					<rect x="0" y="90.0331" width="38.211" height="4.41167" class="st3"/>
				</g>
				<g id="shape17237-9" transform="translate(1.70079,-35.0671)">
					<title>Sheet.17237</title>
					<path d="M11.11 88.9 C11.11 91.96 8.62 94.44 5.56 94.44 C2.49 94.44 0 91.96 0 88.9 C0 85.85 2.49 83.36 5.56 83.36
								 C8.62 83.36 11.11 85.85 11.11 88.9 Z" class="st1"/>
				</g>
				<g id="shape17238-11" transform="translate(4.53543,-37.3295)">
					<title>Sheet.17238</title>
					<path d="M2.15 91.73 L4.65 94.44 L3.29 94.44 L0 91.28 L3.29 88 L4.65 88 L2.15 90.71 L8.28 90.71 L8.28 91.73 L2.15
								 91.73 Z" class="st3"/>
				</g>
				<g id="shape17239-13" transform="translate(14.8535,-9.72829)">
					<title>Sheet.17239</title>
					<path d="M4.88 92.3 C4.88 92.97 4.65 93.43 4.2 93.88 C3.74 94.33 3.17 94.44 2.38 94.44 C1.7 94.44 1.13 94.22
								 0.68 93.77 C0.23 93.31 0 92.86 0 92.18 C0 91.5 0.23 91.05 0.68 90.6 C1.13 90.15 1.7 90.03 2.49 90.03
								 C3.17 90.03 3.74 90.26 4.2 90.71 C4.65 91.16 4.88 91.62 4.88 92.3 ZM14.97 92.3 C14.97 92.97 14.74
								 93.43 14.29 93.88 C13.83 94.33 13.27 94.44 12.47 94.44 C11.79 94.44 11.23 94.22 10.77 93.77 C10.32
								 93.31 10.09 92.86 10.09 92.18 C10.09 91.5 10.32 91.05 10.77 90.6 C11.23 90.15 11.79 90.03 12.59
								 90.03 C13.27 90.03 13.83 90.26 14.29 90.71 C14.74 91.16 14.97 91.62 14.97 92.3 ZM25.06 92.3 C25.06
								 92.97 24.83 93.43 24.38 93.88 C23.92 94.33 23.36 94.44 22.56 94.44 C21.88 94.44 21.32 94.22 20.86
								 93.77 C20.41 93.31 20.18 92.86 20.18 92.18 C20.18 91.5 20.41 91.05 20.86 90.6 C21.32 90.15 21.88
								 90.03 22.68 90.03 C23.36 90.03 23.92 90.26 24.38 90.71 C24.83 91.16 25.06 91.62 25.06 92.3 Z"
							class="st2"/>
				</g>
			</g>
		</g>
	</g>
</svg>
